build/redact/AmountOutline.svg

<svg xmlns="http://www.w3.org/2000/svg" fill="none" viewBox="0 0 24 24" focusable="false"><path d="M0 0H24V24H0z"/><path fill="#74767B" d="M18.9792 15.6754L18.9792 18.0507C18.9792 18.3149 18.928 18.568 18.8257 18.8099C18.727 19.0433 18.5878 19.2499 18.408 19.4296C18.2283 19.6093 18.0218 19.7485 17.7884 19.8472C17.5465 19.9495 17.2934 20.0007 17.0292 20.0007L6.2766 20.0007C5.98023 20.0007 5.71512 19.9153 5.48126 19.7446C5.26597 19.5873 5.11038 19.3824 5.01449 19.1298C4.91859 18.8772 4.89901 18.6207 4.95573 18.3602C5.01735 18.0773 5.15901 17.8375 5.38071 17.6408L11.6972 12.0374C11.7084 12.0275 11.714 12.015 11.714 12C11.714 11.985 11.7084 11.9725 11.6972 11.9626L5.38071 6.35919C5.15901 6.16251 5.01735 5.9227 4.95573 5.63976C4.89901 5.37929 4.91859 5.12276 5.01449 4.87016C5.11038 4.61755 5.26597 4.41265 5.48126 4.25545C5.71512 4.08468 5.98023 3.99929 6.2766 3.99929L17.0292 3.99929C17.2934 3.99929 17.5465 4.05046 17.7884 4.1528C18.0218 4.25151 18.2283 4.39072 18.408 4.57043C18.5878 4.75015 18.727 4.95669 18.8257 5.19006C18.928 5.43202 18.9792 5.68509 18.9792 5.94929L18.9792 8.32465L17.6792 8.32465L17.6792 5.94929C17.6792 5.7698 17.6157 5.61659 17.4888 5.48967C17.3619 5.36275 17.2087 5.29929 17.0292 5.29929L6.2766 5.29929C6.2536 5.29929 6.23802 5.31004 6.22986 5.33155C6.22169 5.35305 6.22622 5.37143 6.24342 5.3867L12.5599 10.9901C12.7079 11.1214 12.8214 11.2771 12.9004 11.4573C12.9761 11.6299 13.014 11.8108 13.014 12C13.014 12.1892 12.9761 12.3701 12.9004 12.5427C12.8214 12.7229 12.7079 12.8786 12.5599 13.0099L6.24342 18.6133C6.22622 18.6286 6.22169 18.647 6.22986 18.6685C6.23802 18.69 6.2536 18.7007 6.2766 18.7007L17.0292 18.7007C17.2087 18.7007 17.3619 18.6372 17.4888 18.5103C17.6157 18.3834 17.6792 18.2302 17.6792 18.0507L17.6792 15.6754L18.9792 15.6754ZM18.9592 8.30465L18.9792 8.32465C18.9792 8.68865 18.6932 8.97465 18.3292 8.97465C17.9652 8.97465 17.6792 8.68865 17.6792 8.32465L17.6992 8.30464L18.9592 8.30465ZM17.6992 15.6954L17.6792 15.6754C17.6792 15.3114 17.9652 15.0254 18.3292 15.0254C18.6932 15.0254 18.9792 15.3114 18.9792 15.6754L18.9592 15.6954L17.6992 15.6954Z"/></svg>

<svg xmlns="http://www.w3.org/2000/svg" fill="none" viewBox="0 0 24 24" focusable="false"><path fill="#74767B" fill-rule="evenodd" d="M18.97 15.67v2.38q0 .39-.15.75t-.42.62q-.27.27-.62.42-.36.16-.76.16H6.27v-.65.65q-.44 0-.79-.26-.33-.24-.47-.62-.14-.37-.06-.76.09-.43.43-.72l6.31-5.61q.02-.01.02-.03 0-.03-.02-.04L5.38 6.35q-.34-.29-.43-.72-.08-.39.06-.76.14-.38.47-.62.35-.26.79-.26h10.75q.4 0 .76.16.35.15.62.42t.42.62q.15.36.15.75v2.38h-1.3V5.94q0-.26-.19-.46-.19-.19-.46-.19H6.27q-.03 0-.05.04-.01.03.02.05l6.32 5.61q.22.19.34.46.11.26.11.55 0 .28-.11.54-.12.27-.34.46l-6.32 5.61-.43-.49.43.49q-.03.02-.02.05.02.04.05.04h10.75q.27 0 .46-.19.19-.2.19-.46v-2.38zm-.02-7.37.02.02c0 .36-.28.65-.65.65-.36 0-.65-.29-.65-.65l.02-.02zm-1.26 7.39-.02-.02c0-.36.29-.65.65-.65.37 0 .65.29.65.65l-.02.02z"/></svg>
